P3
8 8
255
150 210 255 150 210 255 150 210 255 150 210 255 150 210 255 150 210 255 150 210 255 150 210 255
150 210 255 150 210 255 150 210 255 150 210 255 150 210 255 150 210 255 150 210 255 150 210 255
150 210 255 150 210 255 150 210 255 140 92 56 140 92 56 140 92 56 150 210 255 150 210 255
150 210 255 150 210 255 140 92 56 140 92 56 140 92 56 140 92 56 140 92 56 150 210 255
90 180 90 90 180 90 110 72 42 140 92 56 140 92 56 110 72 42 110 72 42 90 180 90
90 180 90 90 180 90 110 72 42 90 180 90 90 180 90 110 72 42 90 180 90 90 180 90
90 180 90 90 180 90 90 180 90 90 180 90 90 180 90 90 180 90 90 180 90 90 180 90
90 180 90 90 180 90 90 180 90 90 180 90 90 180 90 90 180 90 90 180 90 90 180 90
