P3
8 8
255
245 235 220 245 235 220 245 235 220 245 235 220 245 235 220 245 235 220 245 235 220 245 235 220
245 235 220 225 190 160 245 235 220 100 100 110 100 100 110 245 235 220 225 190 160 245 235 220
245 235 220 70 120 190 245 235 220 160 110 70 160 110 70 245 235 220 190 90 90 245 235 220
245 235 220 70 120 190 160 110 70 160 110 70 160 110 70 160 110 70 190 90 90 245 235 220
245 235 220 70 120 190 245 235 220 230 230 230 230 230 230 245 235 220 190 90 90 245 235 220
190 170 145 190 170 145 190 170 145 190 170 145 190 170 145 190 170 145 190 170 145 190 170 145
190 170 145 190 170 145 190 170 145 190 170 145 190 170 145 190 170 145 190 170 145 190 170 145
190 170 145 190 170 145 190 170 145 190 170 145 190 170 145 190 170 145 190 170 145 190 170 145
