P3
8 8
255
30 40 90 30 40 90 60 70 120 80 85 140 65 75 130 75 80 145 30 40 90 30 40 90
30 40 90 30 40 90 60 70 120 80 85 140 65 75 130 75 80 145 30 40 90 30 40 90
30 40 90 30 40 90 60 70 120 80 85 140 65 75 130 75 80 145 30 40 90 30 40 90
30 40 90 210 60 60 210 60 60 55 55 65 55 55 65 210 210 210 55 55 65 30 40 90
55 55 65 55 55 65 250 240 120 55 55 65 250 240 120 55 55 65 250 240 120 55 55 65
55 55 65 55 55 65 55 55 65 55 55 65 55 55 65 55 55 65 55 55 65 55 55 65
55 55 65 55 55 65 55 55 65 55 55 65 55 55 65 55 55 65 55 55 65 55 55 65
55 55 65 55 55 65 55 55 65 55 55 65 55 55 65 55 55 65 55 55 65 55 55 65
